public/assets/images/Icons/qunit-dom.svg

<svg xmlns="http://www.w3.org/2000/svg" width="58" height="77" viewBox="0 0 58 77">
  <path fill="#FC1B52" d="M1.77055546,37.24641 L9.13169002,32.4181241 C9.28021157,32.3372898 9.4476533,32.2978146 9.61657944,32.3038092 C10.5264427,32.3774272 11.2307753,33.1327182 11.242107,34.0469435 C11.2607141,34.4187225 11.0885619,34.7742939 10.7855816,34.9898729 L5.27823738,38.6181898 L10.7828803,42.2194498 C11.0870301,42.4472045 11.2581588,42.8115648 11.2394057,43.1914653 C11.2175321,44.1012921 10.5186741,44.8504216 9.6138781,44.9339232 C9.44060079,44.944228 9.26915036,44.8937625 9.12898869,44.7911986 L1.76785413,39.9886167 C1.30694248,39.6819048 1.02125993,39.1720331 1,38.6181898 C1.01508809,38.0615799 1.30341966,37.5482782 1.77055546,37.24641 Z M19.3420564,49.8271454 L19.3420564,47.9690197 C16.1760932,47.6260748 13.8657775,45.7977116 13.8657775,41.5119145 L13.8657775,33.5423342 C13.8657775,28.7397522 16.775114,27 20.5400979,27 C24.3050819,27 27.2427824,28.7431343 27.2427824,33.5423342 L27.2427824,41.5132673 C27.2427824,45.7706548 24.9041027,47.6274276 21.7097755,47.9703726 L21.7097755,49.8271454 C21.7235207,50.1418812 21.6047071,50.4479382 21.3823003,50.6707028 C21.1598935,50.8934675 20.8543282,51.0124722 20.5400979,50.9987049 C20.2229296,51.0138126 19.9137597,50.8962092 19.686561,50.6740326 C19.4593623,50.451856 19.3345751,50.1450948 19.3420564,49.8271454 L19.3420564,49.8271454 Z M23.5352018,33.5423342 C23.5352018,31.3142067 22.3945636,30.2569623 20.5400979,30.2569623 C18.6572683,30.2569623 17.5733581,31.3142067 17.5733581,33.5423342 L17.5733581,41.5132673 C17.5733581,43.1989059 18.2014182,44.1993311 19.3420564,44.5706857 L19.3420564,43.0561813 C19.3304444,42.7395313 19.4549915,42.4331019 19.6841096,42.2146108 C19.9132278,41.9961198 20.2249069,41.8865562 20.5400979,41.913708 C20.8525355,41.8872478 21.1610409,41.9980289 21.3855251,42.217292 C21.6100093,42.4365552 21.7283317,42.7426748 21.7097755,43.0561813 L21.7097755,44.5706857 C22.8504136,44.1993311 23.5331758,43.1989059 23.5331758,41.5132673 L23.5352018,33.5423342 Z M40.3098092,28.1424734 C40.3098092,27.3429449 41.22286,27 42.1635995,27 C43.0766503,27 44.0187405,27.3429449 44.0187405,28.1424734 L44.0187405,41.5132673 C44.0187405,46.2847339 40.995948,48.0556015 37.1735607,48.0556015 C33.3241601,48.0556015 30.3277056,46.2847339 30.3277056,41.5132673 L30.3277056,28.1424734 C30.3263549,27.3429449 31.2387304,27 32.1801452,27 C33.0925207,27 34.0346108,27.3429449 34.0346108,28.1424734 L34.0346108,41.5132673 C34.0346108,43.7454533 35.203613,44.7986392 37.17221,44.7986392 C39.140807,44.7986392 40.3098092,43.7420712 40.3098092,41.5132673 L40.3098092,28.1424734 Z M56.2571332,39.9872638 L48.8696606,44.7898458 C48.7422322,44.8958612 48.5781475,44.9471594 48.4131352,44.9325704 C47.5024045,44.8517998 46.793776,44.1052241 46.7592436,43.1901125 C46.7527826,42.8127487 46.9214077,42.4537188 47.215769,42.218097 L52.748776,38.6188662 L47.215769,34.9905494 C46.9227946,34.7666345 46.7533673,34.4166913 46.7592436,34.0476199 C46.783172,33.1279473 47.4973482,32.3752347 48.4131352,32.3044856 C48.573427,32.2946529 48.7328464,32.3345719 48.8696606,32.4188005 L56.2571332,37.2470864 C56.718579,37.5508038 56.9974804,38.0658239 57,38.6188662 C56.9901308,39.1690818 56.7128417,39.679862 56.2571332,39.9872638 L56.2571332,39.9872638 Z"/>
</svg>

<svg xmlns="http://www.w3.org/2000/svg" width="58" height="77"><path fill="#FC1B52" d="M1.77 37.246l7.362-4.828a.944.944 0 0 1 .485-.114 1.77 1.77 0 0 1 1.625 1.743 1.09 1.09 0 0 1-.456.943l-5.508 3.628 5.505 3.601c.304.228.475.593.456.972a1.792 1.792 0 0 1-1.625 1.743.746.746 0 0 1-.485-.143L1.768 39.99A1.725 1.725 0 0 1 1 38.619c.015-.557.303-1.07.77-1.373zm17.572 12.581V47.97c-3.166-.343-5.476-2.171-5.476-6.457v-7.97c0-4.802 2.91-6.542 6.674-6.542 3.765 0 6.703 1.743 6.703 6.542v7.971c0 4.258-2.339 6.114-5.533 6.457v1.857A1.125 1.125 0 0 1 20.54 51a1.143 1.143 0 0 1-1.198-1.172zm4.193-16.285c0-2.228-1.14-3.285-2.995-3.285-1.883 0-2.967 1.057-2.967 3.285v7.971c0 1.686.628 2.686 1.77 3.058v-1.515a1.107 1.107 0 0 1 1.197-1.142 1.08 1.08 0 0 1 1.17 1.142v1.515c1.14-.372 1.823-1.372 1.823-3.058l.002-7.97zm16.775-5.4c0-.8.913-1.142 1.854-1.142.913 0 1.855.343 1.855 1.142v13.371c0 4.772-3.023 6.543-6.845 6.543-3.85 0-6.846-1.771-6.846-6.543v-13.37c-.002-.8.91-1.143 1.852-1.143.913 0 1.855.343 1.855 1.142v13.371c0 2.232 1.169 3.286 3.137 3.286 1.969 0 3.138-1.057 3.138-3.286v-13.37zm15.947 11.845L48.87 44.79a.627.627 0 0 1-.457.143 1.817 1.817 0 0 1-1.654-1.743 1.218 1.218 0 0 1 .457-.972l5.533-3.6-5.533-3.627a1.163 1.163 0 0 1-.457-.943 1.794 1.794 0 0 1 1.654-1.744c.16-.01.32.03.457.115l7.387 4.828c.462.304.74.819.743 1.372a1.687 1.687 0 0 1-.743 1.368z"/></svg>
